svgs/solid/temperature-list.svg

<svg xmlns="http://www.w3.org/2000/svg" viewBox="0 0 512 512"><!-- Font Awesome Pro 6.0.0-alpha2 by @fontawesome - https://fontawesome.com License - https://fontawesome.com/license (Commercial License) --><path d="M160 322.875V160C160 151.25 152.75 144 144 144S128 151.25 128 160V322.875C109.375 329.5 96 347.125 96 368C96 394.5 117.5 416 144 416S192 394.5 192 368C192 347.125 178.625 329.5 160 322.875ZM256 112C256 50.125 205.875 0 144 0S32 50.125 32 112V278.5C12.25 303.25 0 334 0 368C0 447.5 64.5 512 144 512S288 447.5 288 368C288 334 275.75 303.125 256 278.5V112ZM144 448C99.875 448 64 412.125 64 368C64 342.5 76.25 319.125 96 304.25V112C96 85.5 117.5 64 144 64S192 85.5 192 112V304.25C211.75 319 224 342.5 224 368C224 412.125 188.125 448 144 448ZM352 96H480C497.674 96 512 81.674 512 64S497.674 32 480 32H352C334.326 32 320 46.326 320 64S334.326 96 352 96ZM480 160H352C334.326 160 320 174.326 320 192S334.326 224 352 224H480C497.674 224 512 209.674 512 192S497.674 160 480 160ZM480 288H384C366.326 288 352 302.326 352 320S366.326 352 384 352H480C497.674 352 512 337.674 512 320S497.674 288 480 288Z"/></svg>

<svg xmlns="http://www.w3.org/2000/svg" viewBox="0 0 512 512"><!--! Font Awesome Pro 6.0.0-alpha3 by @fontawesome - https://fontawesome.com License - https://fontawesome.com/license (Commercial License) --><path d="M160 322.9V160c0-8.75-7.25-16-16-16S128 151.3 128 160v162.9C109.4 329.5 96 347.1 96 368C96 394.5 117.5 416 144 416S192 394.5 192 368C192 347.1 178.6 329.5 160 322.9zM256 112c0-61.87-50.13-112-112-112S32 50.13 32 112v166.5c-19.75 24.75-32 55.5-32 89.5c0 79.5 64.5 143.1 144 143.1s144-64.5 144-143.1c0-34-12.25-64.88-32-89.5V112zM144 448c-44.13 0-80-35.87-80-79.1c0-25.5 12.25-48.88 32-63.75v-192.3c0-26.5 21.5-48 48-48s48 21.5 48 48v192.3c19.75 14.75 32 38.25 32 63.75C224 412.1 188.1 448 144 448zM352 96h128c17.67 0 32-14.33 32-32s-14.33-32-32-32h-128c-17.67 0-32 14.33-32 32S334.3 96 352 96zM480 160h-128c-17.67 0-32 14.33-32 32s14.33 32 32 32h128c17.67 0 32-14.33 32-32S497.7 160 480 160zM480 288h-96c-17.67 0-32 14.33-32 32s14.33 32 32 32h96c17.67 0 32-14.33 32-32S497.7 288 480 288z"/></svg>
